X:1
T:Title
%%score ( 1 2 ) { 3 | 4 }
L:1/8
M:4/4
K:F
V:1 treble nm="Bright Piano"
V:2 treble 
V:3 treble nm="Bright Piano"
V:4 bass 
V:1
 z4 z2[Q:1/4=100] [CF]2 | [DF]2 F2 [GB]2 [EG]2 | [FA]2 [F=B]2 [Gc]2 [FA]2 | %3
 [FB]2 [_Ec]2 [Dd]2 [DB]2 | [Fc]4 [DB]2 [Cc]2 | [FA]2 [Fc]2 [Fd]2 [Ec]2 | %6
 B-[GB] [FA]2 [EG]2 [Ec]2 | [Fc]2 [FA]2 B-[EB] [FA]2 |[M:3/4] G3- [EG] F2 |] %9
V:2
 x8 | x8 | x8 | x8 | x8 | x8 | .F2 z2 z4 | z4 .D2 z2 |[M:3/4] F4 z2 |] %9
V:3
 z4 z2 A,2 | B,2 C2 D2 C2 | C2 D2 E2 C2 | F,2 G,A, B,2 B,2 | B,2 A,2 B,2 G,2 | C2 C2 B,2 G,2 | %6
 D2 C2 C2 G,2 | C2 D2[K:bass] B,2 C2 |[M:3/4] C2 G,2 A,2 |] %9
V:4
 z4 z2 F,2 | z2 A,2 G,2 C,2 | F,2 D,2 C,2 F,2 | D,2 C,2 B,,2 G,2 | F,4 z2 E,2 | F,2 A,,2 B,,2 C,2 | %6
 D,E, F,2 C,2 C,2 | A,,2 D,2 G,,2 A,,B,, |[M:3/4] C,4 F,,2 |] %9

